images/icon4.svg

<svg width="69" height="69" viewBox="0 0 69 69" fill="none" xmlns="http://www.w3.org/2000/svg">
<path fill-rule="evenodd" clip-rule="evenodd" d="M34.5 69C53.5538 69 69 53.5538 69 34.5C69 15.4462 53.5538 0 34.5 0C15.4462 0 0 15.4462 0 34.5C0 53.5538 15.4462 69 34.5 69Z" fill="#413E65" fill-opacity="0.1"/>
<path fill-rule="evenodd" clip-rule="evenodd" d="M46.7391 21H23.2609C21.4599 21 20 22.4924 20 24.3333V38.9998C20 39.8838 20.3436 40.7317 20.9551 41.3568C21.5666 41.9819 22.396 42.3331 23.2609 42.3331H29.4696L34.4913 48.7497C34.6151 48.9079 34.8025 49 35.0007 49C35.1988 49 35.3862 48.9079 35.51 48.7497L40.5304 42.3331H46.7391C48.5401 42.3331 50 40.8407 50 38.9998V24.3333C50 22.4924 48.5401 21 46.7391 21ZM36.375 35H27.625C27.2798 35 27 34.7761 27 34.5C27 34.2239 27.2798 34 27.625 34H36.375C36.7202 34 37 34.2239 37 34.5C37 34.7761 36.7202 35 36.375 35ZM27.6538 29H43.3462C43.7073 29 44 28.7761 44 28.5C44 28.2239 43.7073 28 43.3462 28H27.6538C27.2927 28 27 28.2239 27 28.5C27 28.7761 27.2927 29 27.6538 29Z" fill="#413E65"/>
</svg>

<svg width="69" height="69" fill="none" xmlns="http://www.w3.org/2000/svg"><path fill-rule="evenodd" clip-rule="evenodd" d="M34.5 69C53.554 69 69 53.554 69 34.5 69 15.446 53.554 0 34.5 0 15.446 0 0 15.446 0 34.5 0 53.554 15.446 69 34.5 69z" fill="#413E65" fill-opacity=".1"/><path fill-rule="evenodd" clip-rule="evenodd" d="M46.74 21H23.26c-1.8 0-3.26 1.492-3.26 3.333V39c0 .884.344 1.732.955 2.357.612.625 1.441.976 2.306.976h6.209l5.021 6.417a.647.647 0 001.019 0l5.02-6.417h6.21c1.8 0 3.26-1.492 3.26-3.333V24.333C50 22.493 48.54 21 46.74 21zM36.374 35h-8.75c-.345 0-.625-.224-.625-.5s.28-.5.625-.5h8.75c.345 0 .625.224.625.5s-.28.5-.625.5zm-8.721-6h15.692c.361 0 .654-.224.654-.5s-.293-.5-.654-.5H27.654c-.361 0-.654.224-.654.5s.293.5.654.5z" fill="#413E65"/></svg>
